svgs/solid/starfighter-twin-ion-engine-advanced.svg

<svg xmlns="http://www.w3.org/2000/svg" viewBox="0 0 640 512"><!--! Font Awesome Pro 6.4.2 by @fontawesome - https://fontawesome.com License - https://fontawesome.com/license (Commercial License) Copyright 2023 Fonticons, Inc. --><path d="M148.8 7.7c13.4 11.5 15 31.7 3.5 45.1L64 155.8v61.8l107.6-21.5C195.3 137.4 252.8 96 320 96s124.7 41.4 148.4 100.1L576 217.6V148.5L488.5 53.7c-12-13-11.2-33.2 1.8-45.2s33.2-11.2 45.2 1.8L623 105.1c10.9 11.8 17 27.3 17 43.4V348.8c0 14.5-4.9 28.6-14 40L537 500c-11 13.8-31.2 16-45 5s-16-31.2-5-45l89-111.2V294.4L468.4 315.9C444.7 374.6 387.2 416 320 416s-124.7-41.4-148.4-100.1L64 294.4v61.8l88.3 103c11.5 13.4 9.9 33.6-3.5 45.1s-33.6 9.9-45.1-3.5l-88.3-103C5.5 386.2 0 371.4 0 356.2V155.8c0-15.3 5.5-30.1 15.4-41.7l88.3-103c11.5-13.4 31.7-15 45.1-3.5zM304 350.7V318c-5.9-1.5-11.4-3.8-16.5-6.8l-23.1 23.1c11.6 8.2 25 14 39.6 16.4zm-62.3-39l23.1-23.1c-3-5.1-5.3-10.6-6.8-16.5H225.3c2.4 14.6 8.2 28.1 16.4 39.6zM225.3 240H258c1.5-5.9 3.8-11.4 6.8-16.5l-23.1-23.1c-8.2 11.6-14 25-16.4 39.6zm39-62.3l23.1 23.1c5.1-3 10.6-5.3 16.5-6.8V161.3c-14.6 2.4-28.1 8.2-39.6 16.4zM375.6 334.3l-23.1-23.1c-5.1 3-10.6 5.3-16.5 6.8v32.7c14.6-2.4 28.1-8.2 39.6-16.4zm22.6-22.6c8.2-11.6 14-25 16.4-39.6H382c-1.5 5.9-3.8 11.4-6.8 16.5l23.1 23.1zM382 240h32.7c-2.4-14.6-8.2-28.1-16.4-39.6l-23.1 23.1c3 5.1 5.3 10.6 6.8 16.5zm-6.4-62.3c-11.6-8.2-25-14-39.6-16.4V194c5.9 1.5 11.4 3.8 16.5 6.8l23.1-23.1zM342.8 278.5c5.7-5.8 9.2-13.7 9.2-22.5c0-17.7-14.3-32-32-32l0 0 0 0c-17.7 0-32 14.3-32 32c0 17.7 14.3 32 32 32c8.8 0 16.7-3.5 22.5-9.2l.3-.3z"/></svg>

<svg xmlns="http://www.w3.org/2000/svg" viewBox="0 0 640 512"><!--! Font Awesome Pro 6.1.1 by @fontawesome - https://fontawesome.com License - https://fontawesome.com/license (Commercial License) Copyright 2022 Fonticons, Inc. --><path d="M148.8 7.704C162.2 19.21 163.8 39.41 152.3 52.83L64 155.8V217.6L171.6 196.1C195.3 137.4 252.8 96 320 96C387.2 96 444.7 137.4 468.4 196.1L576 217.6V148.5L488.5 53.71C476.5 40.72 477.3 20.47 490.3 8.487C503.3-3.5 523.5-2.691 535.5 10.3L623 105.1C633.9 116.9 640 132.4 640 148.5V348.8C640 363.3 635.1 377.4 625.1 388.8L536.1 499.1C525.9 513.8 505.8 516 492 504.1C478.2 493.9 475.1 473.8 487 460L576 348.8V294.4L468.4 315.9C444.7 374.6 387.2 416 320 416C252.8 416 195.3 374.6 171.6 315.9L64 294.4V356.2L152.3 459.2C163.8 472.6 162.2 492.8 148.8 504.3C135.4 515.8 115.2 514.2 103.7 500.8L15.41 397.8C5.465 386.2 0 371.4 0 356.2V155.8C0 140.6 5.465 125.8 15.41 114.2L103.7 11.18C115.2-2.243 135.4-3.797 148.8 7.704V7.704zM304 350.7V317.1C298.1 316.5 292.6 314.1 287.5 311.1L264.4 334.3C275.9 342.5 289.4 348.2 304 350.7H304zM241.7 311.6L264.9 288.5C261.9 283.4 259.5 277.9 258 272H225.3C227.8 286.6 233.5 300.1 241.7 311.6V311.6zM225.3 240H258C259.5 234.1 261.9 228.6 264.9 223.5L241.7 200.4C233.5 211.9 227.8 225.4 225.3 240V240zM264.4 177.7L287.5 200.9C292.6 197.9 298.1 195.5 304 194V161.3C289.4 163.8 275.9 169.5 264.4 177.7H264.4zM352.5 311.1C347.4 314.1 341.9 316.5 336 317.1V350.7C350.6 348.2 364.1 342.5 375.6 334.3L352.5 311.1zM398.3 311.6C406.5 300.1 412.2 286.6 414.7 272H381.1C380.5 277.9 378.1 283.4 375.1 288.5L398.3 311.6zM381.1 240H414.7C412.2 225.4 406.5 211.9 398.3 200.4L375.1 223.5C378.1 228.6 380.5 234.1 381.1 240V240zM336 161.3V194C341.9 195.5 347.4 197.9 352.5 200.9L375.6 177.7C364.1 169.5 350.6 163.8 336 161.3H336zM342.8 278.5C348.5 272.7 352 264.8 352 256C352 238.3 337.7 224 320 224H319.1C302.3 224 288 238.3 288 256C288 273.7 302.3 288 320 288C328.8 288 336.7 284.5 342.5 278.8L342.8 278.5z"/></svg>
